icons/file_type_npm.svg

<svg xmlns="http://www.w3.org/2000/svg" viewBox="0 0 32 32"><path d="M2 10.555h28v9.335H16v1.556H9.778v-1.557H2Zm1.556 7.779h3.111v-4.668h1.555v4.667h1.556v-6.222H3.556Zm7.778-6.223v7.779h3.111v-1.556h3.111v-6.223Zm3.111 1.556H16v3.112h-1.556Zm4.667-1.556v6.223h3.111v-4.668h1.556v4.667h1.556v-4.667h1.556v4.667h1.556v-6.222Z" style="fill:#cb3837"/></svg>

<svg xmlns="http://www.w3.org/2000/svg" viewBox="0 0 32 32"><title>file_type_npm</title><path d="M2,10.555H30v9.335H16v1.556H9.778V19.889H2Zm1.556,7.779H6.667V13.666H8.222v4.667H9.778V12.111H3.556Zm7.778-6.223v7.779h3.111V18.334h3.111V12.111Zm3.111,1.556H16v3.112H14.444Zm4.667-1.556v6.223h3.111V13.666h1.556v4.667h1.556V13.666h1.556v4.667h1.556V12.111Z" style="fill:#cb3837"/></svg>
